tools/download-figma-icons/icons/action/info-i.svg

<svg width="24" height="24" viewBox="0 0 24 24" fill="none" xmlns="http://www.w3.org/2000/svg">
<path fill-rule="evenodd" clip-rule="evenodd" d="M12.0001 5.24998C11.5373 5.24998 11.1713 5.39023 10.9028 5.67147C10.6343 5.95272 10.5001 6.31047 10.5001 6.74471C10.5001 7.18646 10.6373 7.54721 10.9118 7.82845C11.1863 8.1097 11.5493 8.24995 12.0001 8.24995C12.4508 8.24995 12.8131 8.1097 13.0876 7.82845C13.3621 7.54721 13.5001 7.18646 13.5001 6.74471C13.5001 6.31047 13.3636 5.95272 13.0928 5.67147C12.8213 5.39023 12.4561 5.24998 12.0001 5.24998ZM10.8751 18.4671H13.1251V9.74993H10.8751V18.4671ZM12.0001 0C18.6271 0 24 5.37295 24 11.9999C24 15.1821 22.7355 18.2346 20.4848 20.4845C18.2348 22.7353 15.1823 23.9998 12.0001 23.9998C5.37244 23.9998 0.000244138 18.6276 0.000244138 11.9999C0.000244138 5.37295 5.37244 0 12.0001 0Z" fill="black"/>
</svg>

<svg width="24" height="24" viewBox="0 0 24 24" fill="none" xmlns="http://www.w3.org/2000/svg"><path fill-rule="evenodd" clip-rule="evenodd" d="M12 5.25c-.463 0-.829.14-1.097.421-.269.282-.403.64-.403 1.074 0 .441.137.802.412 1.083.274.282.637.422 1.088.422.45 0 .813-.14 1.088-.422.274-.28.412-.642.412-1.083 0-.435-.136-.792-.407-1.074-.272-.28-.637-.421-1.093-.421Zm-1.125 13.217h2.25V9.75h-2.25v8.717ZM12 0c6.627 0 12 5.373 12 12a11.998 11.998 0 0 1-12 12C5.372 24 0 18.628 0 12 0 5.373 5.372 0 12 0Z" fill="currentColor"/></svg>
